fullpage-slides/static/on-sound-dark.svg

<?xml version="1.0" encoding="UTF-8" standalone="no"?>
<svg width="32px" height="32px" viewBox="0 0 32 32" version="1.1" xmlns="http://www.w3.org/2000/svg" xmlns:xlink="http://www.w3.org/1999/xlink">
    <!-- Generator: Sketch 47.1 (45422) - http://www.bohemiancoding.com/sketch -->
    <title>on-sound copy</title>
    <desc>Created with Sketch.</desc>
    <defs></defs>
    <g id="Desktop-1024x768" stroke="none" stroke-width="1" fill="none" fill-rule="evenodd" opacity="0.7">
        <g id="on-sound-copy" transform="translate(1.000000, 1.000000)">
            <path d="M10.5993571,10.4369505 C10.6563805,10.4369505 10.7118199,10.4179852 10.7577554,10.3827639 L15.0814996,7.05462591 C15.2557377,6.92078513 15.5038949,7.04812352 15.5038949,7.27137212 L15.5038949,22.7286279 C15.5038949,22.9518765 15.2557377,23.0792149 15.0814996,22.9453741 L10.7577554,19.6172361 C10.7118199,19.5820148 10.6563805,19.5630495 10.5993571,19.5630495 L6.26399708,19.5630495 C6.11827069,19.5630495 6,19.4416717 6,19.2921168 L6,10.7078832 C6,10.5583283 6.11827069,10.4369505 6.26399708,10.4369505 L10.5993571,10.4369505 Z M16.8267843,17.5289406 L16.8267843,12.4717097 L17.8827726,12.4717097 L17.8827726,17.5289406 L16.8267843,17.5289406 Z M19.205398,19.0640456 L19.205398,10.9360628 L20.2613863,10.9360628 L20.2613863,19.0640456 L19.205398,19.0640456 Z M21.5840117,20.6896421 L21.5840117,9.31046625 L22.64,9.31046625 L22.64,20.6896421 L21.5840117,20.6896421 Z" id="onsound" fill="#000000"></path>
            <circle id="Oval" stroke="#000000" stroke-width="2" cx="15" cy="15" r="15"></circle>
        </g>
    </g>
</svg>

<svg width="32" height="32" xmlns="http://www.w3.org/2000/svg"><g transform="translate(1 1)" fill="none" fill-rule="evenodd" opacity=".7"><path d="M10.6 10.437a.26.26 0 0 0 .158-.054l4.323-3.328c.175-.134.423-.007.423.216V22.73c0 .223-.248.35-.423.216l-4.323-3.328a.26.26 0 0 0-.159-.054H6.264a.268.268 0 0 1-.264-.27v-8.585c0-.15.118-.271.264-.271h4.335zm6.227 7.092v-5.057h1.056v5.057h-1.056zm2.378 1.535v-8.128h1.056v8.128h-1.056zm2.379 1.626V9.31h1.056v11.38h-1.056z" fill="#000"/><circle stroke="#000" stroke-width="2" cx="15" cy="15" r="15"/></g></svg>
